app/assets/images/icons/money.svg

<svg width="40" height="40" viewBox="0 0 40 40" fill="none" xmlns="http://www.w3.org/2000/svg">
<path fill-rule="evenodd" clip-rule="evenodd" d="M0 20C0 8.954 8.954 0 20 0C31.046 0 40 8.954 40 20C40 31.046 31.046 40 20 40C8.954 40 0 31.046 0 20ZM22 10C22 9.46957 21.7893 8.96086 21.4142 8.58579C21.0391 8.21071 20.5304 8 20 8C19.4696 8 18.9609 8.21071 18.5858 8.58579C18.2107 8.96086 18 9.46957 18 10V12H16C14.6739 12 13.4021 12.5268 12.4645 13.4645C11.5268 14.4021 11 15.6739 11 17C11 18.3261 11.5268 19.5979 12.4645 20.5355C13.4021 21.4732 14.6739 22 16 22H24C24.2652 22 24.5196 22.1054 24.7071 22.2929C24.8946 22.4804 25 22.7348 25 23C25 23.2652 24.8946 23.5196 24.7071 23.7071C24.5196 23.8946 24.2652 24 24 24H14C13.4696 24 12.9609 24.2107 12.5858 24.5858C12.2107 24.9609 12 25.4696 12 26C12 26.5304 12.2107 27.0391 12.5858 27.4142C12.9609 27.7893 13.4696 28 14 28H18V30C18 30.5304 18.2107 31.0391 18.5858 31.4142C18.9609 31.7893 19.4696 32 20 32C20.5304 32 21.0391 31.7893 21.4142 31.4142C21.7893 31.0391 22 30.5304 22 30V28H24C25.3261 28 26.5979 27.4732 27.5355 26.5355C28.4732 25.5979 29 24.3261 29 23C29 21.6739 28.4732 20.4021 27.5355 19.4645C26.5979 18.5268 25.3261 18 24 18H16C15.7348 18 15.4804 17.8946 15.2929 17.7071C15.1054 17.5196 15 17.2652 15 17C15 16.7348 15.1054 16.4804 15.2929 16.2929C15.4804 16.1054 15.7348 16 16 16H26C26.5304 16 27.0391 15.7893 27.4142 15.4142C27.7893 15.0391 28 14.5304 28 14C28 13.4696 27.7893 12.9609 27.4142 12.5858C27.0391 12.2107 26.5304 12 26 12H22V10Z" fill="#4A2D24"/>
</svg>

<svg xmlns="http://www.w3.org/2000/svg" width="40" height="40" fill="none"><path fill="#4A2D24" fill-rule="evenodd" d="M0 20C0 8.954 8.954 0 20 0s20 8.954 20 20-8.954 20-20 20S0 31.046 0 20m22-10a2 2 0 1 0-4 0v2h-2a5 5 0 1 0 0 10h8a1 1 0 0 1 0 2H14a2 2 0 0 0 0 4h4v2a2 2 0 0 0 4 0v-2h2a5 5 0 1 0 0-10h-8a1 1 0 0 1 0-2h10a2 2 0 0 0 0-4h-4z" clip-rule="evenodd"/></svg>
